app/assets/v2/images/products/gitcoin-logo.svg

<svg fill="none" height="38" viewBox="0 0 31 38" width="31" xmlns="http://www.w3.org/2000/svg"><g clip-rule="evenodd"><path d="m26.071 32-1.909-1.755c1.406-1.376 2.18-3.19 2.18-5.107 0-2-.833-3.87-2.346-5.264l-.996-.918 1.068-.956.91.915.87-.85c2.032 1.873 3.152 4.385 3.152 7.073 0 2.576-1.04 5.013-2.929 6.862z" fill="#0fce7c" fill-rule="evenodd"/><path d="m26.071 32-1.909-1.755c1.406-1.376 2.18-3.19 2.18-5.107 0-2-.833-3.87-2.346-5.264l-.996-.918 1.068-.956.91.915.87-.85c2.032 1.873 3.152 4.385 3.152 7.073 0 2.576-1.04 5.013-2.929 6.862z" stroke="#0fce7c" stroke-width=".5"/><g fill-rule="evenodd"><path d="m28 16-8 8z" fill="#15003e"/><path d="m19.737 19.48c.457.73.723 1.593.723 2.52 0 1.048-.339 2.016-.912 2.8l8.285 6.315v6.885h-12.29v-.007c-8.593-.14-15.543-7.258-15.543-15.993 0-8.822 7.088-16 15.8-16 4.22 0 8.188 1.664 11.172 4.687l1.028 1.04-4.46 4.258-.032-.034zm5.272 15.66h-9.21c-7.153 0-12.974-5.895-12.974-13.14 0-7.246 5.82-13.14 12.976-13.14 2.97 0 5.788 1.004 8.076 2.854l-6.322 5.915a4.585 4.585 0 0 0 -1.754-.349c-2.57 0-4.66 2.117-4.66 4.72 0 2.602 2.09 4.72 4.66 4.72.457 0 .899-.069 1.317-.194l7.892 6.016v2.598zm-9.21-11.28c-1.012 0-1.836-.835-1.836-1.86 0-1.026.824-1.86 1.837-1.86 1.012 0 1.836.834 1.836 1.86 0 1.025-.824 1.86-1.836 1.86z" fill="#fff"/><path d="m31 5-1 1-1-1 1-1zm-8 0-1 1-1-1 1-1zm5-4a1 1 0 1 0 -2 0 1 1 0 0 0 2 0z" fill="#25e899"/><path d="m11 16c-.552 0-1-.496-1-1.108v-11.784c0-.612.448-1.108 1-1.108s1 .496 1 1.108v11.784c0 .612-.448 1.108-1 1.108zm7-6v-4.98a1.01 1.01 0 0 0 -1-1.02c-.552 0-1 .457-1 1.02v4.876a9.735 9.735 0 0 1 2 .104z" fill="#fff"/></g></g></svg>

<svg width="31" height="38" viewBox="0 0 31 38" fill="none" xmlns="http://www.w3.org/2000/svg"><path fill-rule="evenodd" clip-rule="evenodd" d="M26.071 32l-1.909-1.755c1.406-1.376 2.18-3.19 2.18-5.107 0-2-.833-3.87-2.346-5.264L23 18.956 24.068 18l.91.915.87-.85C27.88 19.938 29 22.45 29 25.138c0 2.576-1.04 5.013-2.929 6.862z" fill="#0FCE7C"/><path clip-rule="evenodd" d="M26.071 32l-1.909-1.755c1.406-1.376 2.18-3.19 2.18-5.107 0-2-.833-3.87-2.346-5.264L23 18.956 24.068 18l.91.915.87-.85C27.88 19.938 29 22.45 29 25.138c0 2.576-1.04 5.013-2.929 6.862z" stroke="#0FCE7C" stroke-width=".5"/><path fill-rule="evenodd" clip-rule="evenodd" d="M28 16l-8 8 8-8z" fill="#15003E"/><path fill-rule="evenodd" clip-rule="evenodd" d="M19.737 19.48c.457.73.723 1.593.723 2.52 0 1.048-.339 2.016-.912 2.8l8.285 6.315V38h-12.29v-.007C6.95 37.853 0 30.735 0 22 0 13.178 7.088 6 15.8 6c4.22 0 8.188 1.664 11.172 4.687L28 11.727l-4.46 4.258-.032-.034-3.771 3.529zm5.272 15.66h-9.21C8.646 35.14 2.825 29.245 2.825 22c0-7.246 5.82-13.14 12.976-13.14 2.97 0 5.788 1.004 8.076 2.854l-6.322 5.915a4.585 4.585 0 0 0-1.754-.349c-2.57 0-4.66 2.117-4.66 4.72 0 2.602 2.09 4.72 4.66 4.72.457 0 .899-.069 1.317-.194l7.892 6.016v2.598zm-9.21-11.28c-1.012 0-1.836-.835-1.836-1.86 0-1.026.824-1.86 1.837-1.86 1.012 0 1.836.834 1.836 1.86 0 1.025-.824 1.86-1.836 1.86z" fill="#fff"/><path fill-rule="evenodd" clip-rule="evenodd" d="M31 5l-1 1-1-1 1-1 1 1zM23 5l-1 1-1-1 1-1 1 1zM28 1a1 1 0 1 0-2 0 1 1 0 0 0 2 0z" fill="#25E899"/><path fill-rule="evenodd" clip-rule="evenodd" d="M11 16c-.552 0-1-.496-1-1.108V3.108C10 2.496 10.448 2 11 2s1 .496 1 1.108v11.784c0 .612-.448 1.108-1 1.108zM18 10V5.02A1.01 1.01 0 0 0 17 4c-.552 0-1 .457-1 1.02v4.876A9.735 9.735 0 0 1 18 10z" fill="#fff"/></svg>
